packages/kaspersky-hexa-ui-icons/src/iconsSVGs/48/Folder.svg

<svg width="48" height="48" viewBox="0 0 48 48" fill="none" xmlns="http://www.w3.org/2000/svg">
<path fill-rule="evenodd" clip-rule="evenodd" d="M20.41 8L17.41 5H2V43H46V8H20.41ZM16.59 7L19.59 10H44V13H4V7H16.59ZM4 41V15H44V41H4Z"  fill="currentColor"/>
</svg>

<svg xmlns="http://www.w3.org/2000/svg" width="48" height="48" fill="none" viewBox="0 0 48 48"><path fill="currentColor" fill-rule="evenodd" d="m20.41 8-3-3H2v38h44V8zm-3.82-1 3 3H44v3H4V7zM4 41V15h40v26z" clip-rule="evenodd"/></svg>
